X:1
T:Japanese Hornpipe
M:C|
L:1/8
S:Johnny Doherty
K:A
cd |: (3efe ^de =de c2| (3BcB AB GB F2| EFGA Bcde | fe^de c2 c=d |
(3efe ^de =de c2| (3BcB AB GB F2| EFGA Bcde |1(3gfe (3dcB A2 cd:|2 (3gfe (3dcB A2||
ea|:c'e c'4(3eac'| e'2bab2 eg |be b4 (3egb | e'2 aga2 ea |c'e c'4(3eac'|
 e'2bab2 ea|gagf (3efe (3dcB |1AcBG A2 ea:|2AcBG A2||
